!!!COM: Palestrina, Giovanni Perluigi da
!!!OPR: Missa In duplicibus minoribus (II)
!!!OMD: Benedictus
!!!OTL: First Section
**kern	**kern	**kern	**kern
*Itenor	*Itenor	*Icalto	*Icant
!Tenor 2	!Tenor 1	!Altus	!Cantus
*clefGv2	*clefGv2	*clefG2	*clefG2
*k[]	*k[]	*k[]	*k[]
*E:phr	*E:phr	*E:phr	*E:phr
*M4/2	*M4/2	*M4/2	*M4/2
=1	=1	=1	=1
1r	0r	1A	0r
1A	.	2.c	.
.	.	4d	.
=2	=2	=2	=2
2.c	0r	4e	1e
.	.	4f	.
.	.	2g	.
4d	.	.	.
4e	.	2.c	1g
4f	.	.	.
[2g	.	.	.
.	.	4B	.
=3	=3	=3	=3
2g]	0r	2c	1a
2f#	.	2d	.
2g	.	2G	1b
2G	.	[2g	.
=4	=4	=4	=4
0d	0r	2g]	0a
.	.	4f#	.
.	.	4e	.
.	.	1f#	.
=5	=5	=5	=5
1G	1E	1g	0b
2r	2.G	[1d	.
[2G	.	.	.
.	4A	.	.
=6	=6	=6	=6
2G]	4B	1d]	1g
.	4c	.	.
2B	1d	.	.
1A	.	1e	1a
.	2c#	.	.
=7	=7	=7	=7
2G	1d	1.g	0b
4G	.	.	.
4A	.	.	.
4B	1G	.	.
4c	.	.	.
[2d	.	2g	.
=8	=8	=8	=8
2d]	1A	2f	[0a
2c	.	2.e	.
2.f	1D	.	.
.	.	4d	.
.	.	[2d	.
8e	.	.	.
8d	.	.	.
=9	=9	=9	=9
1e	2r	2d]	1a]
.	2A	2c#	.
[1f	2D	2r	[1a
.	2D	2d	.
=10	=10	=10	=10
2f]	4F	2A	1a]
.	4E	.	.
2c	4F	2A	.
.	4G	.	.
1r	1A	4c	1e
.	.	4d	.
.	.	4e	.
.	.	4c	.
=11	=11	=11	=11
0r	2D	4d	1f
.	.	4e	.
.	2D	2.f	.
.	1C	.	1g
.	.	8e	.
.	.	8d	.
.	.	2e	.
=12	=12	=12	=12
2r	2F	2.f	0a
2d	2D	.	.
.	.	8e	.
.	.	8d	.
2A	2F	2c	.
2A	2F	2f	.
=13	=13	=13	=13
4c	1C	2e	0g
4d	.	.	.
4e	.	2c	.
4c	.	.	.
2d	1G	2B	.
[2e	.	2G	.
=14	=14	=14	=14
2e]	0r	2A	1f
2.d	.	2B	.
.	.	2.c	1e
4c	.	.	.
[2c	.	.	.
.	.	4c	.
=15	=15	=15	=15
2c]	1r	1G	1d
2B	.	.	.
1c	[1A	2r	2e
.	.	2c	2a
=16	=16	=16	=16
2r	1A]	2c	2e
4c	.	2A	2e
4d	.	.	.
4e	1E	2B	4g
4f	.	.	4a
2g	.	2e	4b
.	.	.	4g
=17	=17	=17	=17
2.f	1F	2d	2a
.	.	2c	1cc
4e	.	.	.
2d	1G	2.g	.
2d	.	.	2b
.	.	4f	.
=18	=18	=18	=18
0c	0A	1e	2cc
.	.	.	2a
.	.	2r	2e
.	.	2c	2e
=19	=19	=19	=19
1r	0G	2B	4g
.	.	.	4a
.	.	2G	4b
.	.	.	4cc
1d	.	1B	2dd
.	.	.	4d
.	.	.	4e
=20	=20	=20	=20
2A	1F	2.c	4f
.	.	.	4g
2A	.	.	1a
.	.	4d	.
2c	1E	1e	.
4B	.	.	[2g
4c	.	.	.
=21	=21	=21	=21
4d	1.D	1.A	2g]
4e	.	.	.
1d	.	.	4f
.	.	.	4e
.	.	.	4f
.	.	.	4g
2d	2D	2A	[2a
=22	=22	=22	=22
2c	[0E	[0e	2a]
4B	.	.	4g#
4A	.	.	4f#
2B	.	.	2g#
2c	.	.	2a
=23	=23	=23	=23
[0B	1E_	1e_	[0g#
.	1E_	1e_	.
=24	=24	=24	=24
0B]	0E]	0e]	0g#]
*-	*-	*-	*-
!!!CDT: 1525/^1526/-1594/2/2
!!!OCY: Italia
!!!AGN: Mass (Paraphrase)
!!!AST: renaissance, vocal
!!!ASW: Gregorian Mass
!!!PWK: Masses, Book Mantuan I
!!!RNB: Cadence finals: A
!!!YOR: Le Opere Complete, v. 18, p. 1
!!!YOO: Rome, Italy: Fratelli Scalera
!!!END: 1992//
!!!EED: John Miller
!!!YEC: Copyright 2000, John Miller
!!!YEN: United States of America
!!!YEM: Rights to all derivative electronic formats reserved.
!!!YEM: Refer to licensing agreement for further details.
!!!YEM: This file must be accompanied by the licensing agreement.
!!!YEM: A copy of the licensing agreement may be found at http://www.music-cog.ohio-state.edu/HumdrumDatabases/Palestrina/license.txt
!!!EMD: converted to Humdrum by Bret Aarden
